src/assets/purchase.svg

<svg xmlns="http://www.w3.org/2000/svg" fill="none" viewBox="0 0 24 24"><path fill="currentColor" d="M21 4.5H3A1.50002 1.50002 0 0 0 1.5 6v12c0 .3978.15804.7794.43934 1.0607S2.60218 19.5 3 19.5h18c.3978 0 .7794-.158 1.0607-.4393A1.5001 1.5001 0 0 0 22.5 18V6c0-.39782-.158-.77936-.4393-1.06066A1.50015 1.50015 0 0 0 21 4.5ZM21 6v2.25H3V6h18ZM3 18V9.75h18V18H3Z"/><path fill="currentColor" d="M12 15H4.5v1.5H12V15Z"/></svg>

<svg viewBox="0 0 24 24" fill="none" xmlns="http://www.w3.org/2000/svg">

<path d="M21 4.5H3C2.60218 4.5 2.22064 4.65804 1.93934 4.93934C1.65804 5.22064 1.5 5.60218 1.5 6V18C1.5 18.3978 1.65804 18.7794 1.93934 19.0607C2.22064 19.342 2.60218 19.5 3 19.5H21C21.3978 19.5 21.7794 19.342 22.0607 19.0607C22.342 18.7794 22.5 18.3978 22.5 18V6C22.5 5.60218 22.342 5.22064 22.0607 4.93934C21.7794 4.65804 21.3978 4.5 21 4.5ZM21 6V8.25H3V6H21ZM3 18V9.75H21V18H3Z" fill="currentColor"/>
<path d="M12 15H4.5V16.5H12V15Z" fill="currentColor"/>
</svg>
